svg/fluentui-system-icons/ic_fluent_mic_28_regular.svg

<svg width="28" height="28" viewBox="0 0 28 28" fill="none" xmlns="http://www.w3.org/2000/svg">
<path d="M14 2C11.5147 2 9.5 4.01472 9.5 6.5V14.5C9.5 16.9853 11.5147 19 14 19C16.4853 19 18.5 16.9853 18.5 14.5V6.5C18.5 4.01472 16.4853 2 14 2ZM11 6.5C11 4.84315 12.3431 3.5 14 3.5C15.6569 3.5 17 4.84315 17 6.5V14.5C17 16.1569 15.6569 17.5 14 17.5C12.3431 17.5 11 16.1569 11 14.5V6.5ZM7.5 13.7505C7.5 13.3363 7.16421 13.0005 6.75 13.0005C6.33579 13.0005 6 13.3367 6 13.7509V14.4999C6 18.6653 9.18341 22.0871 13.25 22.4652V25.2499C13.25 25.6641 13.5858 25.9999 14 25.9999C14.4142 25.9999 14.75 25.6641 14.75 25.2499V22.4652C18.8166 22.0871 22 18.6653 22 14.4999V13.7505C22 13.3363 21.6642 13.0005 21.25 13.0005C20.8358 13.0005 20.5 13.3365 20.5 13.7507V14.4999C20.5 18.0898 17.5899 20.9999 14 20.9999C10.4101 20.9999 7.5 18.0893 7.5 14.4995V13.7505Z" fill="#212121"/>
</svg>

<svg xmlns="http://www.w3.org/2000/svg" width="28" height="28"><path d="M14 2a4.5 4.5 0 0 0-4.5 4.5v8a4.5 4.5 0 1 0 9 0v-8A4.5 4.5 0 0 0 14 2Zm-3 4.5a3 3 0 1 1 6 0v8a3 3 0 1 1-6 0v-8Zm-3.5 7.25a.75.75 0 1 0-1.5 0v.75a8 8 0 0 0 7.25 7.965v2.785a.75.75 0 0 0 1.5 0v-2.785A8 8 0 0 0 22 14.5v-.75a.75.75 0 1 0-1.5 0v.75a6.5 6.5 0 1 1-13 0v-.75Z"/></svg>
